X:1
T:Filli crudele-Bella Filli
T:Giovanni Stefani
T:Source : Affetti amorosi-Canzonette ad una voce sola---Venetia---A.Vincenti---1621. Editor : André Vierendeels (06/11/15).
T:Notes : Original clefs : C4, F4 Editorial accidentals above the staff Alfabetto et intavolatura per la chitarra Spagnola Terza impressione (first print 1618) m 2 in BC : "la" notated as "fa" in original print  ( see m23) m 16 in BC "si" notated as "la" in original print 
T:-natural
T:-natural
T:Bella Filli- Filli crudele
C:Giovanni Stefani
%%score 1 { ( 2 3 ) | 4 }
L:1/8
Q:1/4=90
M:4/4
K:F
V:1 treble-8 nm="Tenor" snm="T"
V:2 treble nm="MusicXML Part"
V:3 treble 
V:4 bass 
V:1
 z4 z2 AA | =B2 BB ^c4 | d4 z2 cc | d2 ef f2 e2 | f4 z2 fe | d6 cB | A2 Bc c2 =BB | c2 cc c2 cB | %8
w: Bel- la|Fil- li cru- de-|le, se bra-|ma- te che mo- *|ra, se bra-|ma- te che|mo- ra, que- st'al- ma fe-|de- le, que- st'al- ma fe-|
w: Bel- la|Fil- li vez- zo-|za, Fil- li|va tem- po mia vi-|ta, non- si-|a- te ri-|tro- sa, ne- gan- do- mi'a-|i- ta, ne gan- do- mi'a'i-|
w: Deh se|tan- to bra- ma-|te di ve-|der- mi mo- ri- *|re, di ve-|der- mi mo-|ri- re, per- che non mi-|ra- te, l'a- cer- bo mar-|
 A2 BA G2 GF | F4 F4 :: z4 z2 AB | c2 d_e d4 |"^-natural" c4 z2 EF | G2 AB A4 | G2 de f4- | %15
w: de- le, che v'a- ma'e v'a-|do- ra.|Quei be-|gl'oc- chi'a- mo- ro-|si deh vol-|ge- te pie- to-|si, deh vol- ge-|
w: ta, sol un sguar- do d'a-|mo- re.|ch'ie- de|l'al- ma che mo-|re, ch'ie de|l'am- ma che mo-|re, con _ pe-|
w: ti- re, l'a- cer- bo mar-|ti- re.|ve'av- ve-|ra for- se'in- sie-|ne, di ve-|der l'au- r'es- tre-|me, di que- sta|
 f2 ed d2 dc | c2 BA A2 BA | G2 FG A2 Bc | c2 =BB c2 dc | c2 =BB c2 cc |"^b" B2 AG G4 | A4 z2 AA | %22
w: * te pie- to- si, ch'al|va- go splen- do- re, fia|cen- ner' il co- re, e|fuo- ri del pet- to, n'an-|dra con di- let- to, que-|st'al- ma fe- de-|le, bel- la|
w: * na'e tor- men- to, per|vo- stro con- ten- to, per|vo- stro gio- i- re, sol|bra- mo mo- ri- re, sol|bra- mo mo- ri- re, que-|st'al- ma de- de-|le, * *|
w: _ mi- a vi- ta, ch'a|mor- te tra- di- ta, se|mor- te'i pie- ta- ta, da|voi Fil- l'in- gra- ta, da|voi Fil- l'in- gra- ta, a|chi ves fe- de-|le, * *|
 =B2 BB ^c4 | d4 z2 cc | B2 AG G4 | F8 :| %26
w: Fil- li cru- de-|le, bel- la|Fil- li cru- de-|le.|
w: ||||
w: ||||
V:2
 z4 A4 | =B4 A4 | A4 c4 | d2 B2 c4 | A4 A4 | B4 G4 | A4 d4 | c4 G4 | A2 d2 c4 | A8 :: z4 c4 | %11
 _e2 d2 =B4 | c4 G4 | B4 A4 | B4 A4 | B2 F2 G4- | G4 A4 | =B2 c2 A2 _B2 | d4 A2 A2 | d4 c2 A2 | %20
 F4 E4 | F4 A4 | =B4 A4 | A4 c4 | B4 c4 | A8 :| %26
V:3
 z4 F4 | D4 E4 | ^F4 E4 | F4 G4 | C4 F4 | F4 E4 | C4 G4 | E4 E4 | F2 F2 E4 | F8 :: z4 F4 | G4 G4 | %12
 E4 E4 | D4 ^F4 | D4 F4 | D4 E4- | E4 ^F4 | G4 F4 | G4 E2 F2 | G4 E2 E2 | D4 C4 | C4 F4 | D4 E4 | %23
 ^F4 E4 | F2 D2 F2 E2 | C8 :| %26
V:4
 z4 z2 F,2 | G,4 A,4 | D,4 A,,4 |"^b" B,,4 C,4 | F,,4 F,4 | B,,4 C,4 | F,4 G,4 | C,4 C,4 | %8
 D,2 B,,2 C,4 | F,,8 :: z4 F,4 | C,4 G,,4 | C,4 C,4 | G,,4 D,4 | G,4 D,4 | B,,4 G,,4 | C,4 D,4 | %17
 E,4 F,4 | G,4 A,2 F,2 |"^-natural""^-natural" G,4 C,2 A,,2 | B,,4 C,4 | F,,4 F,4 | G,4 A,4 | %23
 D,4 A,,4 | B,,4 C,4 | F,,8 :| %26

